SVG/mail-forward.svg

<?xml version="1.0" encoding="utf-8"?>
<!-- Generated by IcoMoon.io -->
<!DOCTYPE svg PUBLIC "-//W3C//DTD SVG 1.1//EN" "http://www.w3.org/Graphics/SVG/1.1/DTD/svg11.dtd">
<svg version="1.1" xmlns="http://www.w3.org/2000/svg" xmlns:xlink="http://www.w3.org/1999/xlink" width="14" height="14" viewBox="0 0 14 14">
<path fill="#444444" d="M14 5q0 0.203-0.148 0.352l-4 4q-0.148 0.148-0.352 0.148t-0.352-0.148-0.148-0.352v-2h-1.75q-0.766 0-1.371 0.047t-1.203 0.168-1.039 0.332-0.824 0.543-0.625 0.789-0.379 1.082-0.137 1.414q0 0.43 0.039 0.961 0 0.047 0.020 0.184t0.020 0.207q0 0.117-0.066 0.195t-0.184 0.078q-0.125 0-0.219-0.133-0.055-0.070-0.102-0.172t-0.105-0.234-0.082-0.187q-0.992-2.227-0.992-3.523 0-1.555 0.414-2.602 1.266-3.148 6.836-3.148h1.75v-2q0-0.203 0.148-0.352t0.352-0.148 0.352 0.148l4 4q0.148 0.148 0.148 0.352z"></path>
</svg>

<svg xmlns="http://www.w3.org/2000/svg" viewBox="0 0 14 14"><path d="M14 5q0 .203-.148.352l-4 4Q9.704 9.5 9.5 9.5t-.352-.148T9 9V7H7.25q-.766 0-1.37.047t-1.204.168-1.04.332-.823.543-.625.79-.38 1.08-.136 1.415q0 .43.04.96 0 .048.02.185t.02.207q0 .117-.067.195T1.5 13q-.124 0-.218-.133-.055-.07-.102-.172t-.105-.234-.082-.186Q0 10.047 0 8.75q0-1.554.415-2.6Q1.68 3 7.25 3H9V1Q9 .8 9.15.65T9.5.5t.353.15l4 4Q14 4.796 14 5z" /></svg>
